X:122
T: Széne van az ólban...
M: 2/4
L: 1/4
K: Bb
gd | g/a/g | d2 | 
gf | e/d/c | B2 | 
BG | c/d/e | d2 | 
ed | c/B/ A | G2 | 

